X:1
T:Humours of Carrigaholt
D: Peter &amp; Angelina Carberry: Memories From The Holla
M:C|
R:Reel
K:G
BA|: GFDB, C2 DC | B,G,G,A, B,CDE|=FEDB, C2 B,C|DGGA BGAF|
GFDB, C2 DC|B,G,G,A, B,CDE|=FEDB, C2 B,C|1 DGGF G2 BA :|2 DGGF G2 GA|
B2 GA BGdB|AGFG ABcA|BDGA BGdB|AGFE D3 A|Bdd^c dedB|
cBAB c2 Bc|dedc BGAF|G2 GA BGAF:|
